src/static/logos/sentry.svg

<?xml version="1.0" encoding="UTF-8" standalone="no"?>
<svg width="256px" height="230px" viewBox="0 0 256 230" version="1.1" xmlns="http://www.w3.org/2000/svg" xmlns:xlink="http://www.w3.org/1999/xlink" preserveAspectRatio="xMidYMid">
    <g>
        <path d="M251.220287,187.855608 C257.004771,197.90121 257.565256,208.46418 252.758026,216.813957 C247.957982,225.17092 238.56628,229.956592 226.990126,229.956592 L205.174358,229.956592 C205.433042,225.889489 205.6055,221.786458 205.6055,217.654683 C205.6055,213.027096 205.389928,208.456995 205.073758,203.901264 L219.423589,203.886893 C222.951766,203.886893 225.804487,201.0198 225.804487,197.48444 C225.804487,196.377842 225.524244,195.350288 225.035617,194.430519 L133.576099,35.4614019 C132.491059,33.52845 130.414393,32.2206537 128.035928,32.2206537 C125.722135,32.2206537 123.695768,33.4565931 122.5748,35.3105023 L108.052512,60.5538467 C152.187047,93.8236117 181.85678,145.366597 185.916697,203.886893 C186.232867,208.435438 186.448438,213.005539 186.448438,217.640312 C186.448438,221.772086 186.275981,225.867932 186.024482,229.94222 L114.778322,229.94222 C115.166349,225.889489 115.389106,221.793643 115.389106,217.640312 C115.389106,212.991168 115.11605,208.406694 114.613051,203.886893 C111.092061,171.680611 95.3266475,143.139032 72.1096689,122.997531 L62.1071823,140.37254 C79.6474624,156.698437 91.6188292,178.930976 94.8739488,203.886893 C95.4631757,208.392323 95.7937176,212.976796 95.7937176,217.640312 C95.7937176,221.793643 95.5206613,225.903861 95.0535911,229.94222 L29.009874,229.94222 C17.4337202,229.94222 8.0420177,225.149363 3.24197385,216.7924 C-1.5652557,208.442623 -1.00477154,197.886838 4.77971245,187.834051 L18.3391177,164.595516 C26.1140391,168.770404 33.098534,174.209975 39.0554747,180.648357 L30.9715685,194.416147 C30.490127,195.32873 30.2026993,196.36347 30.2026993,197.470068 C30.2026993,201.00543 33.0554199,203.865336 36.5835958,203.865336 L68.6174214,203.879707 C65.9299717,188.523879 58.8448771,174.669859 48.6986766,163.697304 C42.7201789,157.251736 35.7356839,151.797794 27.9607626,147.622905 L63.7311493,85.4738348 C71.3479853,89.7349516 78.5552368,94.6212238 85.2954181,100.096723 C116.122047,125.110125 136.939004,162.05178 140.711493,203.872521 L159.882926,203.872521 C155.973909,154.981057 131.406019,111.86689 94.9458057,83.3253122 C88.1122104,77.9791555 80.8762161,73.1359975 73.2737514,68.8676951 L103.805767,15.822899 C109.583065,5.7701126 118.42147,0 128.035928,0 C137.643202,0 146.47442,5.7701126 152.258904,15.822899 L251.220287,187.855608 L251.220287,187.855608 Z" fill="#FB2D26"></path>
    </g>
</svg>

<svg width="256" height="230" xmlns="http://www.w3.org/2000/svg" preserveAspectRatio="xMidYMid"><path d="M251.22 187.856c5.785 10.045 6.345 20.608 1.538 28.958-4.8 8.357-14.192 13.143-25.768 13.143h-21.816c.259-4.068.431-8.17.431-12.302 0-4.628-.215-9.198-.531-13.754l14.35-.014c3.528 0 6.38-2.867 6.38-6.403a6.46 6.46 0 00-.768-3.053l-91.46-158.97a6.349 6.349 0 00-5.54-3.24 6.374 6.374 0 00-5.461 3.09l-14.522 25.243c44.134 33.27 73.804 84.813 77.864 143.333.316 4.548.531 9.119.531 13.753 0 4.132-.172 8.228-.424 12.302h-71.246c.388-4.053.611-8.148.611-12.302 0-4.649-.273-9.233-.776-13.753-3.52-32.206-19.286-60.748-42.503-80.89l-10.003 17.376c17.54 16.325 29.512 38.558 32.767 63.514.59 4.505.92 9.09.92 13.753 0 4.154-.273 8.264-.74 12.302H29.01c-11.576 0-20.968-4.793-25.768-13.15-4.807-8.35-4.247-18.905 1.538-28.958l13.56-23.238a79.42 79.42 0 0120.715 16.052l-8.083 13.768a6.523 6.523 0 00-.77 3.054 6.383 6.383 0 006.382 6.395l32.033.015c-2.687-15.356-9.772-29.21-19.918-40.183-5.979-6.445-12.963-11.9-20.738-16.074l35.77-62.15a151.427 151.427 0 0121.564 14.624c30.827 25.013 51.644 61.955 55.416 103.776h19.172c-3.91-48.892-28.477-92.006-64.937-120.548a171.205 171.205 0 00-21.672-14.457l30.532-53.045C109.583 5.77 118.42 0 128.036 0c9.607 0 18.438 5.77 24.223 15.823l98.961 172.033z" fill="#FB2D26"/></svg>
